X: 34962
T: Rocky Road To Mount Collins, The
R: polka
M: 2/4
K: Amajor
|:E2 FE|A4|c2 Bc|BA FA|
E2 FE|A4|c2 Bc|BA A2:|
|:ce ed/e/|fe cB|ce AB|cB B2|
ce ed/e/|fe cB|ce cB|A2 A2:|

